icons/op-pin-24.svg

<svg width="24" height="24" viewBox="0 0 24 24" fill="none" xmlns="http://www.w3.org/2000/svg">
<path d="M14.0472 4L13.0709 6.98039L10.0787 9.92941L9.10236 8.95686L6.11024 9.92941L9.10236 12.9098L8.09449 13.8824L4 20L10.0787 15.8588L11.0866 14.8863L9.51181 13.3176L14.0472 17.8353L15.0551 14.8863L14.0472 13.8824L17.0394 10.9333L20 9.92941L14.0472 4Z" fill="black"/>
</svg>

<svg xmlns="http://www.w3.org/2000/svg" width="24" height="24" viewBox="0 0 24 24"><path d="m14.047 4-.976 2.98-2.992 2.949-.977-.972-2.992.972 2.992 2.981-1.008.972L4 20l6.079-4.141 1.008-.973-1.575-1.568 4.535 4.517 1.008-2.949-1.008-1.004 2.992-2.949L20 9.929 14.047 4Z"/></svg>
